X: 281
T: Hawks and Eagles
B: canberra pickers and fiddlers
B: tunes
M:4/4
L:1/8
Q: 1/4=100
K:D
V:1 
A2|:"D" (Bd2) (B dB)AB|(BA)dA (Bd)A2|"A"e3(f e2) de|(fe)fe d2B2|
"D"(Bd2) (B d2)AB|(BA)dB A2F2|"A"A3BA2 (BA-|1A)FEE "D"D2 AA:|2A)FEE"D"D4||
|:"D"D3D DB,A,A,|(B,D)DD B,2A,2|"A"E3(FE2)DE|(FD)FD (ED)B,2|
"D"D3(E D)B,A,A,|B,D DD B,2A,A,|"A"A3(B A2)(FA-|A)FED "D"D4:|
% abcbook-tune_id 63da5934aba0cb62bd7705c7
% abcbook-tune_composer_id 
% abcbook-link-0 https://www.youtube.com/watch?v=LiwkstXBD6M
% abcbook-link-start-at-0 7
% abcbook-link-end-at-0 87
% abcbook-boost 0
% abcbook-difficulty 0
% abcbook-tags canberra pickers and fiddlers,old time tunes,© free
% abcbook-tablature 
% abcbook-transpose 
% abcbook-tuning ADAE
% abcbook-lastupdated 1738712046197
% abcbook-src-url https://tunebook.net/scrape/tunes.abc
% abcbook-soundfonts 
% abcbook-repeats 1
%%gchordfont "itim-music,Itim" 20

